midway/_inc/system.svg

<svg xmlns="http://www.w3.org/2000/svg"><g fill="#fff" fill-rule="evenodd"><path d="m142.892 41.43-46.776 57.387 14.208-56.175-70.155 65.193c-12.003-6.015-19.188-14.052-19.188-23.22 0-21.588 39.831-41.436 88.671-44.181 11.742-.663 22.965-.276 33.24.996zm3.267 71.847 18.186-67.545c20.664 6.024 33.972 16.428 33.972 28.902 0 15.846-21.447 30.744-52.158 38.643zm-88.629 47.815 20.307-73.78-40.905 41.694c-23.043-8.484-37.053-21.75-36.93-37.188 0-28.404 48.798-53.667 108.633-56.238 13.254-.57 25.968.018 37.728 1.593l30.294-37.173-10.992 40.839c30.93 7.773 51.606 23.148 51.606 41.634 0 27.294-45.066 51.685-101.676 55.834l18.423-65.884z"/><path d="m263.915 50.421h-25.011l-20.22 69.381h19.098l7.923-27.198 3.282-15.846-1.947 43.044h14.895l23.02-42.291-5.925 15.093-7.926 27.198h18.999l20.22-69.381h-24.921l-23.179 42.183z"/><path d="m318.435 50.421-20.217 69.381h20.718l20.22-69.381z"/><path d="m363.186 66.909c5.259-.144 9.216 1.014 11.871 3.48 2.658 2.46 3.063 7.083 1.215 13.866-1.164 3.996-2.562 7.26-4.194 9.795-1.626 2.535-3.462 4.518-5.499 5.943-2.043 1.428-4.227 2.373-6.561 2.835-2.328.465-4.809.63-7.44.486zm-15.531-16.488-20.22 69.381h27.018c4.842 0 9.465-.642 13.881-1.929 4.416-1.281 8.478-3.372 12.189-6.261 3.702-2.892 6.993-6.642 9.861-11.244 2.868-4.605 5.166-10.185 6.885-16.758 1.746-6.639 2.001-12.099.768-16.38-1.236-4.287-3.204-7.674-5.916-10.173-2.709-2.499-5.802-4.23-9.273-5.193-3.477-.966-6.615-1.443-9.414-1.443z"/><path d="m405.99 50.421-4.176 69.381h20.049l18.414-39.939-4.188 39.939h20.145l35.115-69.381h-19.386l-19.164 42.183 5.514-42.183h-18.81l-18.213 42.183 5.325-42.183z"/><path d="m498.105 96.354 12.603-22.593-.474 22.593zm8.901-45.933-42.561 69.381h20.91l4.626-8.994h20.148l-.618 8.994h20.911l-1.933-69.381z"/><path d="m533.266 50.421 9.996 44.325-7.299 25.056h20.145l7.299-25.056 36.594-44.325h-23.676l-16.581 22.482-3.564-22.482z"/></g></svg>

<?xml version="1.0" encoding="utf-8"?>
<svg id="svg2985" version="1.1" xmlns="http://www.w3.org/2000/svg">
  <g>
    <path id="path2999" style="fill-opacity: 1; fill-rule: evenodd; stroke: none; fill: rgb(255, 255, 255);" d="M 142.892 41.43 L 96.116 98.817 L 110.324 42.642 L 40.169 107.835 C 28.166 101.82 20.981 93.783 20.981 84.615 C 20.981 63.027 60.812 43.179 109.652 40.434 C 121.394 39.771 132.617 40.158 142.892 41.43 L 142.892 41.43 Z M 146.159 113.277 L 164.345 45.732 C 185.009 51.756 198.317 62.16 198.317 74.634 C 198.317 90.48 176.87 105.378 146.159 113.277 L 146.159 113.277 Z M 57.53 161.092 L 77.837 87.312 L 36.932 129.006 C 13.889 120.522 -0.121 107.256 0.002 91.818 C 0.002 63.414 48.8 38.151 108.635 35.58 C 121.889 35.01 134.603 35.598 146.363 37.173 L 176.657 0 L 165.665 40.839 C 196.595 48.612 217.271 63.987 217.271 82.473 C 217.271 109.767 172.205 134.158 115.595 138.307 L 134.018 72.423 L 57.53 161.092 L 57.53 161.092"/>
    <path id="path3001" style="fill-opacity: 1; fill-rule: evenodd; stroke: none; fill: rgb(255, 255, 255);" d="M 263.915 50.421 L 238.904 50.421 L 218.684 119.802 L 237.782 119.802 L 245.705 92.604 L 248.987 76.758 L 247.04 119.802 L 261.935 119.802 L 284.955 77.511 L 279.03 92.604 L 271.104 119.802 L 290.103 119.802 L 310.323 50.421 L 285.402 50.421 L 262.223 92.604 L 263.915 50.421 L 263.915 50.421"/>
    <path id="path3003" style="fill-opacity: 1; fill-rule: evenodd; stroke: none; fill: rgb(255, 255, 255);" d="M 318.435 50.421 L 298.218 119.802 L 318.936 119.802 L 339.156 50.421 L 318.435 50.421 L 318.435 50.421"/>
    <path id="path3005" style="fill-opacity: 1; fill-rule: evenodd; stroke: none; fill: rgb(255, 255, 255);" d="M 363.186 66.909 C 368.445 66.765 372.402 67.923 375.057 70.389 C 377.715 72.849 378.12 77.472 376.272 84.255 C 375.108 88.251 373.71 91.515 372.078 94.05 C 370.452 96.585 368.616 98.568 366.579 99.993 C 364.536 101.421 362.352 102.366 360.018 102.828 C 357.69 103.293 355.209 103.458 352.578 103.314 L 363.186 66.909 L 363.186 66.909 Z M 347.655 50.421 L 327.435 119.802 L 354.453 119.802 C 359.295 119.802 363.918 119.16 368.334 117.873 C 372.75 116.592 376.812 114.501 380.523 111.612 C 384.225 108.72 387.516 104.97 390.384 100.368 C 393.252 95.763 395.55 90.183 397.269 83.61 C 399.015 76.971 399.27 71.511 398.037 67.23 C 396.801 62.943 394.833 59.556 392.121 57.057 C 389.412 54.558 386.319 52.827 382.848 51.864 C 379.371 50.898 376.233 50.421 373.434 50.421 L 347.655 50.421 L 347.655 50.421"/>
    <path id="path3007" style="fill-opacity: 1; fill-rule: evenodd; stroke: none; fill: rgb(255, 255, 255);" d="M 405.99 50.421 L 401.814 119.802 L 421.863 119.802 L 440.277 79.863 L 436.089 119.802 L 456.234 119.802 L 491.349 50.421 L 471.963 50.421 L 452.799 92.604 L 458.313 50.421 L 439.503 50.421 L 421.29 92.604 L 426.615 50.421 L 405.99 50.421 L 405.99 50.421"/>
    <path id="path3009" style="fill-opacity: 1; fill-rule: evenodd; stroke: none; fill: rgb(255, 255, 255);" d="M 498.105 96.354 L 510.708 73.761 L 510.234 96.354 L 498.105 96.354 L 498.105 96.354 Z M 507.006 50.421 L 464.445 119.802 L 485.355 119.802 L 489.981 110.808 L 510.129 110.808 L 509.511 119.802 L 530.422 119.802 L 528.489 50.421 L 507.006 50.421 L 507.006 50.421"/>
    <path id="path3011" style="fill-opacity: 1; fill-rule: evenodd; stroke: none; fill: rgb(255, 255, 255);" d="M 533.266 50.421 L 543.262 94.746 L 535.963 119.802 L 556.108 119.802 L 563.407 94.746 L 600.001 50.421 L 576.325 50.421 L 559.744 72.903 L 556.18 50.421 L 533.266 50.421 L 533.266 50.421"/>
  </g>
</svg>
